X: 1
T: String Quartet in F Minor opus 20 no 5 mvt 4
C: Franz Joseph Haydn
%%abc-version 2.0
%%abcx-abcm2ps-target-version 5.9.1 (29 Sep 2008)
%%abc-creator hum2abc beta
%%abcx-conversion-date 2021/02/14 14:38:21
%%abc-copyright Copyright (c) 1994, 2000 Center for Computer Assisted Research in the Humanities
%%abc-edited-by Frances Bennion
%%abcx-initial-encoding-date 1997/04/15
%%gracespace 0 6 6
%%humdrum-veritas 3985993891
%%humdrum-veritas-data 4014145762
%%linebreak <none>
%%barnumbers 0
L: 1/4
M: 4/4
N: Derived from op20n5-04.krn
Q: "Fuga a due soggetti"
%%staves [1 2 3 4]
V: 1
V: 2
V: 3 clef=alto
V: 4 clef=bass
K: Ab
[V:1]z4 [I:setbarnb2] |
[V:2]c4 |
[V:3]z4 |
[V:4]z4 |
[V:1]z4 |
[V:2]F2 d2 |
[V:3]z4 |
[V:4]z4 |
[V:1]z4 |
[V:2]=E4 |
[V:3]z B, B, B, |
[V:4]z4 |
[V:1]z4 |
[V:2]F3 G/A/ |
[V:3]B, A,/G,/ A, F, |
[V:4]z4 |
[V:1]z4 |
[V:2]B c d2- |
[V:3]D C B,/A,/ G,/F,/ |
[V:4]z4 |
[V:1]z4 |
[V:2]d c/B/ A G |
[V:3]=E,4 |
[V:4]z4 |
[V:1]f4 |
[V:2]A2 z2 |
[V:3]F, F F F |
[V:4]z4 |
[V:1]c2 a2 |
[V:2]z4 |
[V:3]A G/A/ F E/F/ |
[V:4]z4 |
[V:1]=B4 |
[V:2]z F F F |
[V:3]=D2 G,2 |
[V:4]z4 |
[V:1]c3 =d/e/ |
[V:2]F E/=D/ E C |
[V:3]C,2 z2 |
[V:4]z4 |
[V:1]f g a2- |
[V:2]A G F/E/ =D/C/ |
[V:3]z4 |
[V:4]z4 |
[V:1]a g/f/ e =d |
[V:2]=B,4 |
[V:3]z4 |
[V:4]z4 |
[V:1]c2 B2 |
[V:2]C C/=D/ =E D/E/ |
[V:3]z4 |
[V:4]C4 |
[V:1]A G F2 |
[V:2]F G/A/ B A |
[V:3]z4 |
[V:4]F,2 D2 |
[V:1]z B B B |
[V:2]G2 C2 |
[V:3]z4 |
[V:4]=E,4 |
[V:1]B A/G/ A z |
[V:2]C2 z2 |
[V:3]F4 |
[V:4]F, F,, F, G, |
[V:1]z4 |
[V:2]z4 |
[V:3]C2 A2 |
[V:4]A, G,/A,/ F, E,/F,/ |
[V:1]z F F F |
[V:2]z4 |
[V:3]=B,4 |
[V:4]=D,2 G,,2 |
[V:1]F =E/=D/ C z |
[V:2]c4 |
[V:3]C2 =E, F,/G,/ |
[V:4]C,,2 z2 |
[V:1]z4 |
[V:2]F2 d2 |
[V:3]A, G,/A,/ B, A,/B,/ |
[V:4]z4 |
[V:1]z2 G2 |
[V:2]=E4 |
[V:3]C4- |
[V:4]z B,, B,, B,, |
[V:1]c =d/=e/ f g/a/ |
[V:2]F4 |
[V:3]C4- |
[V:4]B,, A,,/G,,/ A,, F,, |
[V:1]b b b b |
[V:2]G4 |
[V:3]C4 |
[V:4]=E,,4 |
[V:1]b =a/g/ a f |
[V:2]z e e e |
[V:3]C c c =A |
[V:4]F,,4 |
[V:1]z a a a |
[V:2]e =d/c/ d B |
[V:3]F3 =D |
[V:4]B,,4 |
[V:1]a g/f/ g e |
[V:2]z d d d |
[V:3]B, B B E |
[V:4]E,4 |
[V:1]z a a a |
[V:2]d c/B/ c A |
[V:3]E4 |
[V:4]A,,4 |
[V:1]a g/f/ g e |
[V:2]B4- |
[V:3]z E E E |
[V:4]z4 |
[V:1]f b b b |
[V:2]B3 d |
[V:3]E D/C/ D B, |
[V:4]z4 |
[V:1]b a/g/ a f |
[V:2]c4- |
[V:3]z F F F |
[V:4]z4 |
[V:1]g c' c' c' |
[V:2]c3 e |
[V:3]F E/=D/ E C |
[V:4]z4 |
[V:1]c' b/a/ b2- |
[V:2]d3 e/d/ |
[V:3]z G G G |
[V:4]z4 |
[V:1]b c'/b/ a2- |
[V:2]c3 d/c/ |
[V:3]A G F E/F/ |
[V:4]z4 |
[V:1]a b/a/ g2- |
[V:2]B3 c/B/ |
[V:3]G F E =D/E/ |
[V:4]z4 |
[V:1]g a/g/ f2- |
[V:2]A4 |
[V:3]F E =D C/D/ |
[V:4]z4 |
[V:1]f B e d/e/ |
[V:2]G4 |
[V:3]E2 z2 |
[V:4]E,4 |
[V:1]c B/c/ A B/c/ |
[V:2]A2 z2 |
[V:3]z4 |
[V:4]A,,2 F,2 |
[V:1]B D D D |
[V:2]z4 |
[V:3]E4 |
[V:4]G,,4 |
[V:1]D C/B,/ C z |
[V:2]e4 |
[V:3]A,4 |
[V:4]z A,, A,, B,, |
[V:1]z4 |
[V:2]A2 f2 |
[V:3]z4 |
[V:4]C, B,,/C,/ D, C,/D,/ |
[V:1]z4 |
[V:2]G4 |
[V:3]z D D D |
[V:4]E,4 |
[V:1]z _G G G |
[V:2]A4 |
[V:3]D C/B,/ C z |
[V:4]A,,4 |
[V:1]_G F/E/ F z |
[V:2]c4 |
[V:3]z E E E |
[V:4]=A,,4 |
[V:1]z A A A |
[V:2]F4 |
[V:3]E =D/C/ D z |
[V:4]B,,4 |
[V:1]A G/F/ G z |
[V:2]=d4 |
[V:3]z F F F |
[V:4]=B,,4 |
[V:1]g4 |
[V:2]G3 C/=D/ |
[V:3]F E/=D/ E z |
[V:4]C,4 |
[V:1]c2 a2 |
[V:2]E =D/E/ F E/F/ |
[V:3]z4 |
[V:4]z4 |
[V:1]=B2 f2 |
[V:2]G2 =d2 |
[V:3]z G,/=A,/ =B, A,/B,/ |
[V:4]z4 |
[V:1]=e2 g2 |
[V:2]G2 B2 |
[V:3]C2 z2 |
[V:4]z C,/=D,/ =E, D,/E,/ |
[V:1]c2 e2 |
[V:2]=A2 c2 |
[V:3]z F,/G,/ =A, G,/A,/ |
[V:4]F,2 z2 |
[V:1]=d2 f2 |
[V:2]F2 A2 |
[V:3]B,2 z2 |
[V:4]z B,,/C,/ =D, C,/D,/ |
[V:1]B2 d2 |
[V:2]G2 B2 |
[V:3]z E,/F,/ G, F,/G,/ |
[V:4]E,2 z2 |
[V:1]c4- |
[V:2]E _G G G |
[V:3]A,4 |
[V:4]z4 |
[V:1]c e e e |
[V:2]F2 z2 |
[V:3]=A,4 |
[V:4]z4 |
[V:1]e d/c/ d z |
[V:2]f4 |
[V:3]B,2 z2 |
[V:4]z B,, B,, C, |
[V:1]z4 |
[V:2]B2 _g2 |
[V:3]z4 |
[V:4]D, C,/D,/ E, D,/E,/ |
[V:1]z2 c'2 |
[V:2]=A3 c |
[V:3]z E E E |
[V:4]F,3 G,/=A,/ |
[V:1]f3 g/=a/ |
[V:2]c B/=A/ B2 |
[V:3]E D/C/ D B, |
[V:4]B,2 z2 |
[V:1]b4 |
[V:2]G3 B |
[V:3]z D D D |
[V:4]E,3 F,/G,/ |
[V:1]e3 f/_g/ |
[V:2]B A/G/ A2 |
[V:3]D _C/B,/ C A, |
[V:4]A,2 z2 |
[V:1]a2 f d |
[V:2]F4 |
[V:3]z _C C C |
[V:4]D,4 |
[V:1]d2 z2 |
[V:2]_G4 |
[V:3]_C B,/A,/ B, =C |
[V:4]_G,,2 E,2 |
[V:1]z4 |
[V:2]z _c c c |
[V:3]D4 |
[V:4]F,,4 |
[V:1]z4 |
[V:2]_c B/A/ B =c |
[V:3]_G,2 E2 |
[V:4]_G,,2 z2 |
[V:1]z a _c c |
[V:2]d4 |
[V:3]F,4 |
[V:4]z4 |
[V:1]_C B/A/ B z |
[V:2]_G4 |
[V:3]_G, G,/F,/ G, A, |
[V:4]z4 |
[V:1]z4 |
[V:2]D2 B2 |
[V:3]B, A,/B,/ _G, F,/G,/ |
[V:4]z4 |
[V:1]z4 |
[V:2]C4 |
[V:3]E,2 A,2 |
[V:4]z _G,, G,, G,, |
[V:1]d4 |
[V:2]D2 z2 |
[V:3]A, B,/C/ D E |
[V:4]_G,, F,,/E,,/ F,, D,, |
[V:1]A2 f2 |
[V:2]z4 |
[V:3]F E/F/ D C/D/ |
[V:4]z4 |
[V:1]G4 |
[V:2]z4 |
[V:3]B,2 E2 |
[V:4]z D D D |
[V:1]A2 z2 |
[V:2]A4 |
[V:3]E2 z2 |
[V:4]D C/B,/ C A, |
[V:1]z4 |
[V:2]E2 _c2 |
[V:3]z A, A, B, |
[V:4]z4 |
[V:1]z4 |
[V:2]=D4 |
[V:3]_C2 B,2 |
[V:4]z A,, A,, A,, |
[V:1]e4 |
[V:2]E E/=D/ E F |
[V:3]B,4 |
[V:4]A,, _G,,/F,,/ G,, E,, |
[V:1]B2 _g2 |
[V:2]_G F/G/ E D/E/ |
[V:3]z E E F |
[V:4]z4 |
[V:1]=A4 |
[V:2]C2 F2 |
[V:3]_G2 C2 |
[V:4]z E E E |
[V:1]B B, B, C |
[V:2]B4 |
[V:3]F4 |
[V:4]E D/C/ D B, |
[V:1]D C/D/ B, A,/B,/ |
[V:2]F2 d2 |
[V:3]z B, B, C |
[V:4]z4 |
[V:1]G,2 C2 |
[V:2]=E4 |
[V:3]D2 G,2 |
[V:4]z B,, B,, B,, |
[V:1]f4 |
[V:2]F2 z2 |
[V:3]C2 F G |
[V:4]B,, A,,/G,,/ A,, F,, |
[V:1]c2 a2 |
[V:2]z4 |
[V:3]A G/A/ F E/F/ |
[V:4]z4 |
[V:1]=B4 |
[V:2]z F F F |
[V:3]=D4 |
[V:4]G,4 |
[V:1]c2 z2 |
[V:2]F G/F/ E C |
[V:3]G2 z2 |
[V:4]C,2 A,2 |
[V:1]z4 |
[V:2]=D4 |
[V:3]z F F F |
[V:4]=B,,4 |
[V:1]z c c =d |
[V:2]G4 |
[V:3]E4 |
[V:4]C,2 z2 |
[V:1]e =d/e/ c d/e/ |
[V:2]C2 A2 |
[V:3]A,2 F2 |
[V:4]z4 |
[V:1]f e/=d/ g f |
[V:2]=B,4 |
[V:3]G,4 |
[V:4]z4 |
[V:1]e c/=d/ =e d/e/ |
[V:2]C2 B2 |
[V:3]C2 G2 |
[V:4]C4 |
[V:1]f2 z2 |
[V:2]A4 |
[V:3]F G/A/ B A/B/ |
[V:4]F,2 D2 |
[V:1]z4 |
[V:2]z4 |
[V:3]G C c B/c/ |
[V:4]=E,4 |
[V:1]c'4 |
[V:2]F4 |
[V:3]A A A A |
[V:4]F,2 z2 |
[V:1]f2 d'2 |
[V:2]c2 =E2 |
[V:3]A B/A/ G A |
[V:4]z4 |
[V:1]=e4 |
[V:2]d4 |
[V:3]B B B A/G/ |
[V:4]z4 |
[V:1]f3 c |
[V:2]c4- |
[V:3]A2 F2- |
[V:4]z F,/G,/ A, G,/A,/ |
[V:1]d4- |
[V:2]c4 |
[V:3]F4 |
[V:4]B, B,,/C,/ D, C,/D,/ |
[V:1]d4 |
[V:2]B4- |
[V:3]G4- |
[V:4]E, E,/F,/ G, F,/G,/ |
[V:1]c4- |
[V:2]B4 |
[V:3]G4 |
[V:4]A, A,,/B,,/ C, B,,/C,/ |
[V:1]c4 |
[V:2]A4- |
[V:3]F4- |
[V:4]D, D,/E,/ F, E,/F,/ |
[V:1]B4- |
[V:2]A4 |
[V:3]F4 |
[V:4]G, G,,/A,,/ B,, A,,/B,,/ |
[V:1]B4 |
[V:2]G4- |
[V:3]=E2 G2 |
[V:4]C, C,/=D,/ =E, D,/E,/ |
[V:1]A4 |
[V:2]G2 F2 |
[V:3]C2 z2 |
[V:4]F, F,,/G,,/ A,, B,, |
[V:1]G B B B |
[V:2]=E4 |
[V:3]C4 |
[V:4]C,4- |
[V:1]B A/G/ A f |
[V:2]z4 |
[V:3]F,2 D2 |
[V:4]C,4- |
[V:1]g4 |
[V:2]z B B B |
[V:3]=E,4 |
[V:4]C,4- |
[V:1]c2 a2 |
[V:2]B A/G/ A z |
[V:3]F,4 |
[V:4]C,4- |
[V:1]=B4 |
[V:2]z A A A |
[V:3]z F F F |
[V:4]C,4- |
[V:1]c4- |
[V:2]A G/F/ G A |
[V:3]F =E/=D/ E F |
[V:4]C,4- |
[V:1]c =d =e f |
[V:2]B3 c |
[V:3]G3 A |
[V:4]C,4- |
[V:1]g a b c' |
[V:2]d c B A |
[V:3]B A G F |
[V:4]C,4- |
[V:1]d'4 |
[V:2]G4 |
[V:3]=E4 |
[V:4]C,4 |
[V:1]z4 |
[V:2]c4 |
[V:3]z F F G |
[V:4]z4 |
[V:1]f4 |
[V:2]F2 d2 |
[V:3]A G/A/ F G/A/ |
[V:4]z4 |
[V:1]c2 a2 |
[V:2]=E2 F2- |
[V:3]B c/B/ A F |
[V:4]z4 |
[V:1]=B4 |
[V:2]F E/=D/ G G, |
[V:3]z F F F |
[V:4]z4 |
[V:1]c =e/f/ g f/g/ |
[V:2]C2 z2 |
[V:3]F =E/=D/ E z |
[V:4]C4 |
[V:1]a g/a/ f g/a/ |
[V:2]z4 |
[V:3]F4 |
[V:4]F,2 D2 |
[V:1]b c'/b/ a f |
[V:2]z4 |
[V:3]C2 A2 |
[V:4]=E,2 F,2 |
[V:1]A2 G2- |
[V:2]z4 |
[V:3]=B,4 |
[V:4]z F F F |
[V:1]G2 z2 |
[V:2]g4 |
[V:3]C4 |
[V:4]F =E/=D/ E C |
[V:1]c'4 |
[V:2]c2 a2 |
[V:3]A G/A/ F G/A/ |
[V:4]z4 |
[V:1]f2 d'2 |
[V:2]d c/d/ B A |
[V:3]B A/B/ G A/B/ |
[V:4]z4 |
[V:1]=e4 |
[V:2]G2 c2 |
[V:3]c2 G2 |
[V:4]z B, B, B, |
[V:1]f4 |
[V:2]F2 f2 |
[V:3]c4 |
[V:4]B, A,/G,/ A, F, |
[V:1]z g g g |
[V:2]c4- |
[V:3]B B, B B |
[V:4]=E4 |
[V:1]g f/=e/ f2- |
[V:2]c C c c |
[V:3]B A/G/ A2- |
[V:4]F3 E |
[V:1]f F f f |
[V:2]c B/=A/ B2- |
[V:3]A A, A A |
[V:4]D D D C/D/ |
[V:1]f e/d/ e2- |
[V:2]B B, B B |
[V:3]A G/F/ G2- |
[V:4]E3 D |
[V:1]e E e e |
[V:2]B A/G/ A2- |
[V:3]G G, G G |
[V:4]C C C B,/C/ |
[V:1]e d/c/ d2- |
[V:2]A A, A A |
[V:3]G F/=E/ F2- |
[V:4]D3 C |
[V:1]d D d d |
[V:2]A G/F/ G2- |
[V:3]F F, F F |
[V:4]B, B, B, A,/C/ |
[V:1]d c/B/ c B |
[V:2]G G, G =E |
[V:3]F =E/=D/ E G |
[V:4]C4- |
[V:1]A c B A |
[V:2]F z3 |
[V:3]F A G F |
[V:4]C4 |
[V:1]G2 z2 |
[V:2]c4 |
[V:3]=E C/=D/ E F/G/ |
[V:4]C,4 |
[V:1]f4 |
[V:2]F2 d2 |
[V:3]A2 z2 |
[V:4]C,,4- |
[V:1]c2 a2 |
[V:2]=E2 F2 |
[V:3]z4 |
[V:4]C,,4- |
[V:1]=B4 |
[V:2]=D A G F |
[V:3]F4 |
[V:4]C,,4- |
[V:1]c4 |
[V:2]=E2 F/E/ F/G/ |
[V:3]C2 A2 |
[V:4]C,,4- |
[V:1]=d4 |
[V:2]A A G F |
[V:3]=B,4 |
[V:4]C,,4- |
[V:1]d4 |
[V:2]=E F G E |
[V:3]B,4 |
[V:4]C,,4- |
[V:1]c4 |
[V:2]F G F E |
[V:3]A,4- |
[V:4]C,,4- |
[V:1]B4- |
[V:2]=D4 |
[V:3]A, G, B, F, |
[V:4]C,,4- |
[V:1]B c A F |
[V:2]C4 |
[V:3]=E,2 F,2- |
[V:4]C,,4- |
[V:1]=B,4 |
[V:2]z4 |
[V:3]F, A, G, F, |
[V:4]C,,4 |
[V:1]C2 c2- |
[V:2]z =E F G |
[V:3]=E,2 z2 |
[V:4]C,4 |
[V:1]c2 F2 |
[V:2]A G/A/ F G/A/ |
[V:3]z A, A, B,/A,/ |
[V:4]F,,2 D,2 |
[V:1]d2 =E2 |
[V:2]B A G F |
[V:3]G,4- |
[V:4]=E,,2 C,2- |
[V:1]c3 B |
[V:2]=E =D/E/ C D/E/ |
[V:3]G,2 z2 |
[V:4]C, B,, A,, G,, |
[V:1]A G F f- |
[V:2]F G A G/A/ |
[V:3]c4 |
[V:4]F,, F,2 E, |
[V:1]f e d c |
[V:2]F G/A/ B c |
[V:3]F2 d2 |
[V:4]D, C, B,, B,- |
[V:1]B b2 a |
[V:2]d c/d/ B2- |
[V:3]=E F G d- |
[V:4]B, A, G, F, |
[V:1]g f =e g |
[V:2]B A G F/G/ |
[V:3]d c B A/B/ |
[V:4]=E, F, C2 |
[V:1]c'2 f2 |
[V:2]A a a g/a/ |
[V:3]A2 z2 |
[V:4]F,2 D2 |
[V:1]d'2 =e2 |
[V:2]g3 =e/f/ |
[V:3]z B B A/G/ |
[V:4]=E,2 C2 |
[V:1]c'2 e2 |
[V:2]g g g f/g/ |
[V:3]G2 z2 |
[V:4]E,2 C2 |
[V:1]=b2 =d2 |
[V:2]f3 =d/e/ |
[V:3]z A A G/F/ |
[V:4]=D,2 =B,2 |
[V:1]b2 d2 |
[V:2]f f f =e/f/ |
[V:3]F2 z2 |
[V:4]D,2 B,2 |
[V:1]b2 a2 |
[V:2]=e g c f- |
[V:3]z G A F |
[V:4]C, =E, F, A,, |
[V:1]g4 |
[V:2]f2 =e2 |
[V:3]D B, G, C |
[V:4]B,, G,, C, C,, |
[V:1]f2 z2 |
[V:2]f2 z2 |
[V:3]F,2 z2 |
[V:4]F,,2 z2 |
[V:1]z B B B |
[V:2]G4 |
[V:3]c4- |
[V:4]=E4 |
[V:1]B A/G/ A F |
[V:2]A4 |
[V:3]c4 |
[V:4]F4 |
[V:1]=e4 |
[V:2]c4- |
[V:3]G4 |
[V:4]z B, B, B, |
[V:1]f3 a |
[V:2]c4 |
[V:3]F4 |
[V:4]B, A,/G,/ A, F, |
[V:1]g b z =e |
[V:2]d2 G2 |
[V:3]B2 B,2 |
[V:4]B,,2 C,2 |
[V:1]f2 z2 |
[V:2]F2 z2 |
[V:3]A,2 z2 |
[V:4]D,2 z2 |
[V:1]z B B B |
[V:2]D4 |
[V:3]G4 |
[V:4]=E,4 |
[V:1]B A/G/ A F |
[V:2]C4 |
[V:3]F4 |
[V:4]F,4 |
[V:1]=e4 |
[V:2]G4 |
[V:3]D4 |
[V:4]z B,, B,, B,, |
[V:1]f3 a |
[V:2]F4 |
[V:3]C4 |
[V:4]B,, A,,/G,,/ A,, F,, |
[V:1]=B4 |
[V:2]A4 |
[V:3]z F F F |
[V:4]z4 |
[V:1]c4 |
[V:2]G4 |
[V:3]F =E/=D/ E C |
[V:4]z4 |
[V:1]B4- |
[V:2]D4- |
[V:3]z B, B, A, |
[V:4]z G, G, F, |
[V:1]B G G A |
[V:2]D B, B, C |
[V:3]G,4- |
[V:4]=E,4- |
[V:1]B4- |
[V:2]D2 D2- |
[V:3]G, B, B, A, |
[V:4]E, G, G, F, |
[V:1]B B, B, C |
[V:2]D G, G, A, |
[V:3]G,4- |
[V:4]=E,4- |
[V:1]D2 z2 |
[V:2]B,2 z2 |
[V:3]G,2 z2 |
[V:4]E,2 z2 |
[V:1]z4 |
[V:2]z4 |
[V:3]z4 |
[V:4]z4 |
[V:1]c4 |
[V:2]A4 |
[V:3]z A, A, B, |
[V:4]z F,, F,, G,, |
[V:1]F2 d2 |
[V:2]C B,/C/ D B, |
[V:3]C2 F,2 |
[V:4]A,, G,,/A,,/ B,, A,,/B,,/ |
[V:1]=E4 |
[V:2]G, B, B, C/B,/ |
[V:3]C, G, G, A,/G,/ |
[V:4]C,2 C,,2 |
[V:1]F2 z2 |
[V:2]A,2 z2 |
[V:3]F,2 z2 |
[V:4]F,,2 z2 |
[V:1][G2=e2c2] z2 |
[V:2][=e2c2G2] z2 |
[V:3]C,2 z2 |
[V:4]C,,2 z2 |
[V:1][f2c2F2] z2 |]
[V:2][f2c2F2] z2 |]
[V:3]F,2 z2 |]
[V:4]F,,2 z2 |]

